X:1434
T:Five Miles Away
M:C|
L:1/8
N:"collected by F. O'Neill"
B:O'Neill's 1850 #1434
Z:"Transcribed by Bob Safranek, rjs@gsp.org"
Z: Compacted via repeats and multiple endings [JC]
K:D
|:\
d2 ({e}dB) ABAF | d2 (AF) Agfe | dedF ABAF |\
[1 GFEF GABc :|2 GBAG (FD) D |]
|: g |\
fdAd fdad | fdAd ceeg |\
[1 fdAd fdaf | bage fdd :|\
[2((3fga) (ge) fdec | dABG (FD) Dz |]
